images_sukapura_svg/svx/res/symphony/spacing2.svg

<svg viewBox="0 0 16 16" xmlns="http://www.w3.org/2000/svg" xmlns:xlink="http://www.w3.org/1999/xlink"><linearGradient id="a" gradientTransform="translate(-25.830508 -3.59322)" gradientUnits="userSpaceOnUse" x1="14" x2="13.79661" y1="22" y2="2.135593"><stop offset="0" stop-color="#0040dd"/><stop offset="1" stop-color="#0a84ff"/></linearGradient><linearGradient gradientUnits="userSpaceOnUse" x1="9" x2="9" xlink:href="#a" y1="6" y2="14"/><linearGradient id="b" gradientTransform="matrix(-1 0 0 -1 17 21)" gradientUnits="userSpaceOnUse" x1="9" x2="9" xlink:href="#a" y1="6" y2="14"/><path d="m5 7v2h2v4h-2v2h6v-2h-2v-4h2v-2h-2-2z" fill="url(#b)"/><g fill="none" stroke-linecap="round" stroke-linejoin="round"><path d="m1.4929284 4.5h13.0141436z" stroke="#69696e"/><path d="m1.4929284 1.5h13.0141436z" stroke="#69696e"/><path d="m1.4929284 2.5h13.0141436z" stroke="#e9e9e9" stroke-opacity=".992157"/><path d="m1.4929284 5.5h13.0141436z" stroke="#e9e9e9" stroke-opacity=".992157"/></g></svg>

<?xml version="1.0" encoding="UTF-8" standalone="no"?>
<svg
   xmlns:dc="http://purl.org/dc/elements/1.1/"
   xmlns:cc="http://creativecommons.org/ns#"
   xmlns:rdf="http://www.w3.org/1999/02/22-rdf-syntax-ns#"
   xmlns:svg="http://www.w3.org/2000/svg"
   xmlns="http://www.w3.org/2000/svg"
   xmlns:xlink="http://www.w3.org/1999/xlink"
   xmlns:sodipodi="http://sodipodi.sourceforge.net/DTD/sodipodi-0.dtd"
   xmlns:inkscape="http://www.inkscape.org/namespaces/inkscape"
   viewBox="0 0 16 16"
   version="1.1"
   id="svg14"
   sodipodi:docname="spacing2.svg"
   inkscape:version="0.92.3 (unknown)">
  <metadata
     id="metadata20">
    <rdf:RDF>
      <cc:Work
         rdf:about="">
        <dc:format>image/svg+xml</dc:format>
        <dc:type
           rdf:resource="http://purl.org/dc/dcmitype/StillImage" />
        <dc:title />
      </cc:Work>
    </rdf:RDF>
  </metadata>
  <defs
     id="defs18">
    <linearGradient
       gradientTransform="translate(-25.830508,-3.5932203)"
       id="a"
       gradientUnits="userSpaceOnUse"
       x1="14"
       x2="13.79661"
       y1="22"
       y2="2.1355929">
      <stop
         offset="0"
         stop-color="#0040dd"
         id="stop2" />
      <stop
         offset="1"
         stop-color="#0a84ff"
         id="stop4" />
    </linearGradient>
    <linearGradient
       inkscape:collect="always"
       xlink:href="#a"
       id="linearGradient1005"
       gradientUnits="userSpaceOnUse"
       gradientTransform="matrix(-1,0,0,1,-29.010942,26.95119)"
       x1="-31.010942"
       y1="-4.95119"
       x2="-31.010942"
       y2="-16.951191" />
    <linearGradient
       inkscape:collect="always"
       xlink:href="#a"
       id="linearGradient843"
       x1="9"
       y1="6"
       x2="9"
       y2="14"
       gradientUnits="userSpaceOnUse" />
    <linearGradient
       inkscape:collect="always"
       xlink:href="#a"
       id="linearGradient845"
       gradientUnits="userSpaceOnUse"
       x1="9"
       y1="6"
       x2="9"
       y2="14"
       gradientTransform="rotate(180,8.5,10.5)" />
  </defs>
  <sodipodi:namedview
     pagecolor="#ffffff"
     bordercolor="#666666"
     borderopacity="1"
     objecttolerance="10"
     gridtolerance="10"
     guidetolerance="10"
     inkscape:pageopacity="0"
     inkscape:pageshadow="2"
     inkscape:window-width="1366"
     inkscape:window-height="706"
     id="namedview16"
     showgrid="true"
     inkscape:zoom="14.75"
     inkscape:cx="-12.745763"
     inkscape:cy="13.423729"
     inkscape:window-x="0"
     inkscape:window-y="0"
     inkscape:window-maximized="1"
     inkscape:current-layer="svg14">
    <inkscape:grid
       type="xygrid"
       id="grid827" />
  </sodipodi:namedview>
  <g
     transform="rotate(180,8.5,10.5)"
     id="g18-3"
     style="fill:url(#linearGradient843);fill-opacity:1;stroke:none;stroke-opacity:1">
    <path
       style="fill:url(#linearGradient845);fill-opacity:1;stroke:none;stroke-opacity:1"
       d="M 5 7 L 5 9 L 7 9 L 7 13 L 5 13 L 5 15 L 11 15 L 11 13 L 9 13 L 9 9 L 11 9 L 11 7 L 9 7 L 7 7 L 5 7 z "
       transform="rotate(-180,8.5,10.5)"
       id="path12-6" />
  </g>
  <path
     d="m1.4929284 4.5h13.0141436z"
     fill="none"
     stroke="#808080"
     stroke-linecap="round"
     stroke-linejoin="round"
     id="path2"
     style="stroke:#69696e;stroke-opacity:1" />
  <path
     d="m1.4929284 1.5h13.0141436z"
     fill="none"
     stroke="#808080"
     stroke-linecap="round"
     stroke-linejoin="round"
     id="path4"
     style="stroke:#69696e;stroke-opacity:1" />
  <path
     style="fill:none;stroke:#e9e9e9;stroke-linecap:round;stroke-linejoin:round;stroke-opacity:0.99215686"
     id="path848"
     d="M 1.4929284,2.5 H 14.507072 Z"
     inkscape:connector-curvature="0" />
  <path
     style="fill:none;stroke:#e9e9e9;stroke-linecap:round;stroke-linejoin:round;stroke-opacity:0.99215686"
     id="path850"
     d="M 1.4929284,5.5 H 14.507072 Z"
     inkscape:connector-curvature="0" />
</svg>
